X: 29721
T: Number Nine, The
R: strathspey
M: 4/4
K: Ddorian
C|:A,<D D>C D>A, A,<D|C>E D<E C<G, G,>C|
A,<D D>E F>G A<d|1 c>A G<c E<D D>C:|2 c>A G<c E<D D>e||
d<A A>d f>e d<B|c>A G<c E<C C>e|d<A A>d f>e d<B c>e g>e f<d d>e|
d<A A>d f>e d<B|c>A G<c E<C (3CDE|(3:2:2F2A (3cAF (3:2:2E2G (3:2:2c2G|A<c G<c E>D D<C||

